neru-light-classic/32x32/apps/document-export.svg

<?xml version="1.0" encoding="UTF-8" standalone="no"?>
<svg
   xmlns:dc="http://purl.org/dc/elements/1.1/"
   xmlns:cc="http://creativecommons.org/ns#"
   xmlns:rdf="http://www.w3.org/1999/02/22-rdf-syntax-ns#"
   xmlns:svg="http://www.w3.org/2000/svg"
   xmlns="http://www.w3.org/2000/svg"
   xmlns:sodipodi="http://sodipodi.sourceforge.net/DTD/sodipodi-0.dtd"
   xmlns:inkscape="http://www.inkscape.org/namespaces/inkscape"
   width="32"
   height="32"
   version="1.1"
   id="svg37"
   sodipodi:docname="document-export.svg"
   inkscape:version="0.92.1 r">
  <metadata
     id="metadata41">
    <rdf:RDF>
      <cc:Work
         rdf:about="">
        <dc:format>image/svg+xml</dc:format>
        <dc:type
           rdf:resource="http://purl.org/dc/dcmitype/StillImage" />
        <dc:title></dc:title>
      </cc:Work>
    </rdf:RDF>
  </metadata>
  <sodipodi:namedview
     pagecolor="#ffffff"
     bordercolor="#666666"
     borderopacity="1"
     objecttolerance="10"
     gridtolerance="10"
     guidetolerance="10"
     inkscape:pageopacity="0"
     inkscape:pageshadow="2"
     inkscape:window-width="640"
     inkscape:window-height="480"
     id="namedview39"
     showgrid="false"
     inkscape:zoom="8.375"
     inkscape:cx="10.426224"
     inkscape:cy="13.94147"
     inkscape:current-layer="svg37" />
  <defs
     id="defs17">
    <linearGradient
       id="a"
       y1="61"
       y2="3"
       x2="0"
       gradientUnits="userSpaceOnUse"
       gradientTransform="matrix(0.5,0,0,-0.48276,0,31.45)">
      <stop
         stop-color="#3a539b"
         id="stop2" />
      <stop
         offset="1"
         stop-color="#3f5aa9"
         id="stop4" />
    </linearGradient>
    <linearGradient
       id="b"
       y1="518.04"
       y2="524.8"
       x2="0"
       gradientUnits="userSpaceOnUse">
      <stop
         stop-color="#97aad8"
         id="stop7" />
      <stop
         offset="1"
         stop-color="#c1cae7"
         id="stop9" />
    </linearGradient>
    <linearGradient
       id="c"
       y1="524.8"
       x1="404.57"
       y2="531.8"
       x2="411.57"
       gradientUnits="userSpaceOnUse">
      <stop
         stop-color="#383e51"
         id="stop12" />
      <stop
         offset="1"
         stop-color="#655c6f"
         stop-opacity="0"
         id="stop14" />
    </linearGradient>
  </defs>
  <path
     style="opacity:1;fill:#5c7cda;fill-opacity:1;fill-rule:evenodd;stroke:none;stroke-width:1.02788651;stroke-linecap:round;stroke-linejoin:bevel;stroke-miterlimit:4;stroke-dasharray:none;stroke-dashoffset:0;stroke-opacity:1"
     d="M 21.186981,2.0000001 H 7.536011 C 4.469605,2.0000001 2,4.4676664 2,7.5340722 V 24.463989 C 2,27.530395 4.469605,30 7.536011,30 H 24.465928 C 27.532334,30 30,27.530395 30,24.463989 v -13.65097 z"
     id="path4508"
     inkscape:connector-curvature="0" />
  <path
     style="opacity:1;fill:#5c7cda;fill-opacity:1;fill-rule:evenodd;stroke:none;stroke-width:1.02788651;stroke-linecap:round;stroke-linejoin:bevel;stroke-miterlimit:4;stroke-dasharray:none;stroke-dashoffset:0;stroke-opacity:1"
     d="M 15.283203 30 L 21.1875 30 L 30 21.1875 L 30 7.5351562 C 30 4.4687503 27.533203 2 24.466797 2 L 15.283203 2 L 15.283203 30 z "
     id="path4571" />
  <path
     style="opacity:1;fill:#002b93;fill-opacity:1;fill-rule:evenodd;stroke:none;stroke-width:1.02788651;stroke-linecap:round;stroke-linejoin:bevel;stroke-miterlimit:4;stroke-dasharray:none;stroke-dashoffset:0;stroke-opacity:1"
     d="M 7.5351562 2 C 4.4687503 2 2 4.4687503 2 7.5351562 L 2 24.466797 C 2 27.533203 4.4687503 30 7.5351562 30 L 15.283203 30 L 15.283203 23.005859 L 19.216797 23.005859 L 19.216797 25.232422 L 19.216797 27.458984 L 23.46875 23.207031 L 27.71875 18.957031 L 23.556641 14.792969 C 21.266728 12.502393 19.352737 10.626953 19.304688 10.626953 C 19.256638 10.626953 19.216797 11.590537 19.216797 12.767578 L 19.216797 14.908203 L 15.283203 14.908203 L 15.283203 2 L 7.5351562 2 z "
     id="path4508-3" />
</svg>

<svg xmlns="http://www.w3.org/2000/svg" width="32" height="32"><path d="M21.187 2H7.536A5.523 5.523 0 0 0 2 7.534v16.93A5.525 5.525 0 0 0 7.536 30h16.93A5.523 5.523 0 0 0 30 24.464V10.813z" fill="#5c7cda" fill-rule="evenodd"/><path d="M15.283 30h5.905L30 21.187V7.536A5.521 5.521 0 0 0 24.467 2h-9.184v28z" fill="#5c7cda" fill-rule="evenodd"/><path d="M7.535 2A5.523 5.523 0 0 0 2 7.535v16.932A5.521 5.521 0 0 0 7.535 30h7.748v-6.994h3.934V27.459l4.252-4.252 4.25-4.25-4.162-4.164c-2.29-2.29-4.204-4.166-4.252-4.166-.048 0-.088.964-.088 2.14v2.141h-3.934V2H7.535z" fill="#002b93" fill-rule="evenodd"/></svg>
